modules/feathericon/icons/expand.svg

<svg width="14" height="14" viewBox="0 0 14 14" xmlns="http://www.w3.org/2000/svg"><path d="M8 0h6v6l-2-2-3 3-2-2 3-3-2-2zM6 14H0V8l2 2 3-3 2 2-3 3 2 2z" fill="#000" fill-rule="evenodd"/></svg>

<?xml version="1.0" encoding="UTF-8"?>
<svg width="14px" height="14px" viewBox="0 0 14 14" version="1.1" xmlns="http://www.w3.org/2000/svg" xmlns:xlink="http://www.w3.org/1999/xlink">
    <!-- Generator: sketchtool 48.1 (47250) - http://www.bohemiancoding.com/sketch -->
    <title>expand</title>
    <desc>Created with sketchtool.</desc>
    <defs></defs>
    <g id="media-player" stroke="none" stroke-width="1" fill="none" fill-rule="evenodd">
        <g id="expand" fill="#000000">
            <path d="M8,0 L14,0 L14,6 L12,4 L9,7 L7,5 L10,2 L8,0 Z M6,14 L2.66453526e-15,14 L0,8 L2,10 L5,7 L7,9 L4,12 L6,14 Z" id="Shape"></path>
        </g>
    </g>
</svg>
